X:3413
T:Lisget Fars polska II
T:e Röjås Erik Andersson
R:Polska
O:Boda, Dalarna
Z:Lars Ljunggren, 2013-02-28
Q:90
M:3/4
L:1/8
K:C
G2 e2 d>B|Mc2 a^f/a/Mg2|a>g ^f>d e2|cd/c/ B>A G>F|E2e2d>B|Mc2 a^f/a/Mg2|
a>g ^f>d e>c|B<d c4:||:{cBc}c>e g3a/g/|(3f2d2B2 G>B|d>f a3e|f>a g/a/g/e/ (Mc2|
c>)e g2 a>g|Tf>e d2 c2|{dc}B>c d>e f>d|B<dc4:|
(:musicend:)
(:music:)
